static/assets/images/icons/bin.svg

<svg width="256" height="256" viewBox="0 0 256 256" fill="none" xmlns="http://www.w3.org/2000/svg">
<path fill-rule="evenodd" clip-rule="evenodd" d="M93.0065 24.0065C96.8501 20.1617 102.064 18.0012 107.5 18H148.5C153.937 18 159.151 20.1598 162.996 24.0043C166.84 27.8488 169 33.0631 169 38.5V59H199.75C202.468 59 205.076 60.0799 206.998 62.0022C208.92 63.9244 210 66.5315 210 69.25C210 71.9685 208.92 74.5756 206.998 76.4978C205.076 78.4201 202.468 79.5 199.75 79.5V202.5C199.75 207.937 197.59 213.151 193.746 216.996C189.901 220.84 184.687 223 179.25 223H76.75C71.3131 223 66.0988 220.84 62.2543 216.996C58.4098 213.151 56.25 207.937 56.25 202.5V79.5C53.5315 79.5 50.9244 78.4201 49.0022 76.4978C47.0799 74.5756 46 71.9685 46 69.25C46 66.5315 47.0799 63.9244 49.0022 62.0022C50.9244 60.0799 53.5315 59 56.25 59H87V38.5C87.0012 33.0635 89.1617 27.8501 93.0065 24.0065ZM107.5 59H148.5V38.5H107.5V59ZM117.75 100C117.75 97.2815 116.67 94.6744 114.748 92.7522C112.826 90.8299 110.218 89.75 107.5 89.75C104.782 89.75 102.174 90.8299 100.252 92.7522C98.3299 94.6744 97.25 97.2815 97.25 100V182C97.25 184.718 98.3299 187.326 100.252 189.248C102.174 191.17 104.782 192.25 107.5 192.25C110.218 192.25 112.826 191.17 114.748 189.248C116.67 187.326 117.75 184.718 117.75 182V100ZM158.75 100C158.75 97.2815 157.67 94.6744 155.748 92.7522C153.826 90.8299 151.218 89.75 148.5 89.75C145.782 89.75 143.174 90.8299 141.252 92.7522C139.33 94.6744 138.25 97.2815 138.25 100V182C138.25 184.718 139.33 187.326 141.252 189.248C143.174 191.17 145.782 192.25 148.5 192.25C151.218 192.25 153.826 191.17 155.748 189.248C157.67 187.326 158.75 184.718 158.75 182V100Z" fill="black"/>
</svg>

<svg xmlns="http://www.w3.org/2000/svg" fill="none" viewBox="0 0 256 256"><path fill="#000" fill-rule="evenodd" d="M93.007 24.007A20.5 20.5 0 0 1 107.5 18h41A20.5 20.5 0 0 1 169 38.5V59h30.75a10.25 10.25 0 0 1 0 20.5v123c0 5.437-2.16 10.651-6.004 14.496A20.5 20.5 0 0 1 179.25 223H76.75a20.5 20.5 0 0 1-20.5-20.5v-123a10.25 10.25 0 1 1 0-20.5H87V38.5a20.5 20.5 0 0 1 6.007-14.494M107.5 59h41V38.5h-41zm10.25 41a10.25 10.25 0 0 0-20.5 0v82a10.251 10.251 0 0 0 20.5 0zm41 0a10.25 10.25 0 0 0-20.5 0v82a10.252 10.252 0 0 0 17.498 7.248A10.25 10.25 0 0 0 158.75 182z" clip-rule="evenodd"/></svg>
